packages/icon/src/svg/thumb-up.icon.svg

<svg viewBox="0 0 24 24" xmlns="http://www.w3.org/2000/svg">
<path fill-rule="evenodd" d="M9.4 8.5C9.11064 8.57234 8.61195 8.69701 7.97965 8.7983C7.88634 8.3427 7.48319 8 7 8H3C2.44772 8 2 8.44772 2 9V20C2 20.5523 2.44772 21 3 21H7C7.41917 21 7.77811 20.7421 7.92678 20.3763C8.44711 20.5382 8.73819 20.6382 8.8 20.7L9.1 20.8C10.7 21.4 12.5 22 15 22H19.2C20.8 22 22 20.8 22 19.2V18.9C22.3 18.6 23 17.9 23 16.7C23 16 22.9 15.6 22.7 15.2C22.7104 15.1689 22.7218 15.1357 22.734 15.1003C22.8393 14.7943 23 14.3273 23 13.7C23 13.0727 22.8394 12.6061 22.7341 12.3C22.7219 12.2646 22.7104 12.2311 22.7 12.2C22.7117 12.165 22.7247 12.1274 22.7386 12.0872C22.8439 11.7821 23 11.3301 23 10.8C23 9.3 21.7 8 20.2 8H18.1653C17.8161 8 17.5687 7.64838 17.6415 7.30695C17.7896 6.61191 17.8438 5.78303 17.8438 4.9C17.8438 3.5 17.4619 2.75458 16.7969 2.01562C15.9985 1.12854 15.0312 0.96875 14.4531 0.96875C13.0312 0.96875 12.0781 1.09375 12.0781 2.51562C12.0781 2.59031 12.0785 2.67164 12.0789 2.75882C12.0821 3.48872 12.087 4.62803 11.9 5.7C11.7 6.6 11.3711 7.27734 10.875 7.75C10.614 7.99871 10.1 8.3 9.4 8.5ZM19.2 20C19.7 20 20 19.7 20 19.2V18.8C20 18.0904 20.2979 17.7979 20.5686 17.5323C20.7937 17.3112 21 17.1087 21 16.7C21 16.2045 20.8788 15.9818 20.7698 15.7816C20.6808 15.6182 20.6 15.4697 20.6 15.2C20.6 14.9215 20.6862 14.7508 20.7785 14.5677C20.8851 14.3564 21 14.1287 21 13.7C21 13.2713 20.8851 13.0436 20.7785 12.8323C20.6862 12.6492 20.6 12.4785 20.6 12.2C20.6 11.8697 20.7212 11.6 20.8302 11.3575C20.9192 11.1596 21 10.9798 21 10.8C21 10.4 20.6 10 20.2 10H18C17.1562 10 16.5115 9.55986 16.1562 9.0625C15.801 8.56514 15.6484 8 15.7031 7.20312C15.7103 7.09849 15.7229 6.98218 15.7378 6.84551C15.7813 6.44489 15.8438 5.86931 15.8438 4.9C15.8438 4.03339 15.5813 2.97656 14.2812 2.97656C14.1328 2.97656 14 3.03125 14 3.2C14 4.1 14 5.1 13.8 6C13.6 7.1 13.2 8.2 12.2 9.2C11.6 9.8 10.7 10.2 9.9 10.5C9.44965 10.6501 8.66126 10.8002 8 10.9081V18.3L9.5 18.8C9.55 18.8 9.6 18.825 9.65 18.85C9.7 18.875 9.75 18.9 9.8 18.9C11.3 19.5 12.7 20 15 20H19.2ZM6 10H4V19H6V10Z" />
</svg>

<svg aria-label="thumb up icon" viewBox="0 0 24 24"><path fill-rule="evenodd" d="M9.4 8.5c-.29.072-.788.197-1.42.298A1 1 0 007 8H3a1 1 0 00-1 1v11a1 1 0 001 1h4a1 1 0 00.927-.624c.52.162.811.262.873.324l.3.1c1.6.6 3.4 1.2 5.9 1.2h4.2c1.6 0 2.8-1.2 2.8-2.8v-.3c.3-.3 1-1 1-2.2 0-.7-.1-1.1-.3-1.5l.034-.1c.105-.306.266-.773.266-1.4 0-.627-.16-1.094-.266-1.4a11.768 11.768 0 01-.034-.1l.039-.113c.105-.305.261-.757.261-1.287C23 9.3 21.7 8 20.2 8h-2.035c-.349 0-.596-.352-.523-.693.148-.695.202-1.524.202-2.407 0-1.4-.382-2.145-1.047-2.884A3.11 3.11 0 0014.453.969c-1.422 0-2.375.125-2.375 1.547v.243c.004.73.009 1.869-.178 2.941-.2.9-.529 1.577-1.025 2.05-.261.249-.775.55-1.475.75zM19.2 20c.5 0 .8-.3.8-.8v-.4c0-.71.298-1.002.569-1.268.225-.22.431-.423.431-.832 0-.495-.121-.718-.23-.918-.09-.164-.17-.312-.17-.582 0-.278.086-.45.178-.632.107-.212.222-.44.222-.868 0-.429-.115-.656-.221-.868-.093-.183-.179-.354-.179-.632 0-.33.121-.6.23-.842.09-.198.17-.378.17-.558 0-.4-.4-.8-.8-.8H18c-.844 0-1.488-.44-1.844-.938-.355-.497-.508-1.062-.453-1.859.007-.105.02-.22.035-.357.043-.401.106-.977.106-1.946 0-.867-.263-1.923-1.563-1.923-.148 0-.281.054-.281.223 0 .9 0 1.9-.2 2.8-.2 1.1-.6 2.2-1.6 3.2-.6.6-1.5 1-2.3 1.3-.45.15-1.239.3-1.9.408V18.3l1.5.5c.05 0 .1.025.15.05.05.025.1.05.15.05 1.5.6 2.9 1.1 5.2 1.1h4.2zM6 10H4v9h2v-9z"/></svg>
